X:1
T:270. ATULÖ LOWALANGIDA
M:4/4
L:1/4
K:C
G | C D E A | G F e A | G F E | D2 C :|
G | A A d D | G G c E | D C B B | A2 g G | A G F E | D2 C |]